Papirus/22x22/panel/yd-busy3.svg

<?xml version="1.0" encoding="UTF-8" standalone="no"?>
<svg xmlns:dc="http://purl.org/dc/elements/1.1/" xmlns:cc="http://creativecommons.org/ns#" xmlns:rdf="http://www.w3.org/1999/02/22-rdf-syntax-ns#" xmlns:svg="http://www.w3.org/2000/svg" xmlns="http://www.w3.org/2000/svg" version="1.0" width="22" height="22" id="svg2817">
    <metadata id="metadata57">
        <rdf:RDF>
            <cc:Work rdf:about="">
                <dc:format>
                    image/svg+xml
                </dc:format>
                <dc:type rdf:resource="http://purl.org/dc/dcmitype/StillImage"/>
                <dc:title/>
            </cc:Work>
        </rdf:RDF>
    </metadata>
    <path style="opacity:1000002;fill:#ffffff;fill-opacity:1" d="m 3.9112459,7.2331022 c -0.1810067,0.00731 -0.3270398,0.023534 -0.4381865,0.041156 0.1252227,-0.019178 0.274122,-0.032539 0.4381865,-0.041156 z M 17.403109,15.242298 c 0.01569,0.04479 0.03217,0.0898 0.04242,0.129613 -0.0079,-0.03057 -0.02275,-0.0763 -0.04242,-0.129613 z M 11.334142,9.6839352 c 4.090925,2.3268858 5.499495,4.3629188 5.939234,5.2581798 -0.48155,-0.986197 -1.715177,-2.62697 -2.013295,-3.803387 C 14.975271,10.014622 15.49623,7.9949925 13.116356,6.6413884 10.736861,5.2882361 9.2931546,6.7229668 8.0909109,7.0622116 7.1056218,7.3407797 5.0872186,7.1697812 3.9117694,7.2328804 5.0146908,7.1865706 7.427145,7.4628238 11.334293,9.6840861 Z m 2.839485,-0.9016211 c 0.223767,0.1273445 0.443408,0.4607703 0.505134,0.8339384 0.08809,0.5299705 -0.155416,0.9591305 -0.583768,0.7155175 -0.428711,-0.243995 -0.615929,-0.9174381 -0.480615,-1.3204314 0.09581,-0.2842267 0.335986,-0.3563507 0.559239,-0.228996 z M 12.558281,7.649216 c 0.366291,0.2088916 0.515118,0.6308713 0.332087,0.9437823 -0.182906,0.3120103 -0.628504,0.3965758 -0.994844,0.187808 C 11.528908,8.5721281 11.380053,8.1502888 11.563051,7.837336 11.745923,7.5253237 12.191338,7.4409164 12.558305,7.6492677 Z M 9.7690698,6.8239683 c 0.3593522,-0.1337599 0.7618052,-0.1131452 0.9854612,0.013602 0.223222,0.1269853 0.280468,0.3681916 0.07862,0.5916003 C 10.546642,7.746222 9.8611899,7.9233025 9.4322516,7.6795512 9.0041733,7.4361693 9.259391,7.0140763 9.769032,6.8239305 Z M 16.859913,16.483239 C 17.506355,15.384251 14.808389,12.790488 10.902151,10.576841 6.996103,8.3633792 3.3592205,7.366601 2.7139026,8.4659705 2.2766827,9.2096179 3.2486455,10.850204 5.1315301,12.518573 c 0.6784548,0.805734 1.7817693,1.690667 3.1335366,2.459289 1.3321234,0.757786 2.6434383,1.25416 3.6834043,1.437191 2.473549,0.807388 4.466586,0.825071 4.911349,0.06806 z M 8.5696687,14.459281 C 6.8725916,13.494277 5.6421511,12.463058 5.8960394,12.030265 c 0.253302,-0.432672 1.8229259,0.01847 3.5200665,0.983937 1.6972741,0.964506 2.8784681,2.079439 2.6251531,2.512413 -0.253161,0.432489 -1.774892,-0.10233 -3.4716537,-1.067348 z" id="yandex-ufo"/>
</svg>

<?xml version="1.0" encoding="UTF-8" standalone="no"?>
<svg id="svg2817" xmlns:rdf="http://www.w3.org/1999/02/22-rdf-syntax-ns#" xmlns="http://www.w3.org/2000/svg" height="22" width="22" version="1.0" xmlns:cc="http://creativecommons.org/ns#" xmlns:dc="http://purl.org/dc/elements/1.1/">
 <metadata id="metadata57">
  <rdf:RDF>
   <cc:Work rdf:about="">
    <dc:format>image/svg+xml</dc:format>
    <dc:type rdf:resource="http://purl.org/dc/dcmitype/StillImage"/>
    <dc:title/>
   </cc:Work>
  </rdf:RDF>
 </metadata>
 <path id="yandex-ufo" opacity="1e6" d="m3.9112 7.2331c-0.18101 0.00731-0.32704 0.023534-0.43819 0.041156 0.12522-0.019178 0.27412-0.032539 0.43819-0.041156zm13.492 8.0089c0.01569 0.04479 0.03217 0.0898 0.04242 0.12961-0.0079-0.03057-0.02275-0.0763-0.04242-0.12961zm-6.069-5.5581c4.0909 2.3269 5.4995 4.3629 5.9392 5.2582-0.48155-0.9862-1.7152-2.627-2.0133-3.8034-0.285-1.124 0.236-3.144-2.144-4.4976-2.379-1.3532-3.8228 0.0816-5.0251 0.4208-0.9853 0.2786-3.0037 0.1076-4.1791 0.1707 1.1029-0.0463 3.5153 0.2299 7.4222 2.4512zm2.8395-0.90162c0.22377 0.12734 0.44341 0.46077 0.50513 0.83394 0.08809 0.52997-0.15542 0.95913-0.58377 0.71552-0.42871-0.244-0.61593-0.91744-0.48062-1.3204 0.09581-0.28423 0.33599-0.35635 0.55924-0.229zm-1.616-1.1331c0.36629 0.20889 0.51512 0.63087 0.33209 0.94378-0.18291 0.31201-0.6285 0.39658-0.99484 0.18781-0.366-0.2087-0.515-0.6305-0.332-0.9435 0.183-0.312 0.628-0.3964 0.995-0.188zm-2.7889-0.8252c0.35935-0.13376 0.76181-0.11315 0.98546 0.013602 0.22322 0.12699 0.28047 0.36819 0.07862 0.5916-0.286 0.317-0.9718 0.4941-1.4007 0.2504-0.4281-0.2434-0.1729-0.6655 0.3367-0.8557zm7.0909 9.659c0.646-1.099-2.052-3.693-5.958-5.906-3.9059-2.2136-7.5428-3.2104-8.1881-2.111-0.4372 0.7436 0.5347 2.384 2.4176 4.053 0.67845 0.80573 1.7818 1.6907 3.1335 2.4593 1.3321 0.75779 2.6434 1.2542 3.6834 1.4372 2.4735 0.80739 4.4666 0.82507 4.9113 0.06806zm-8.2903-2.024c-1.6971-0.965-2.9275-1.996-2.6737-2.429 0.2533-0.43267 1.8229 0.01847 3.5201 0.98394 1.6973 0.96451 2.8785 2.0794 2.6252 2.5124-0.25316 0.43249-1.7749-0.10233-3.4717-1.0673z" fill="#fff"/>
</svg>
